X:203
T:Steirische Jodler und Taenze Nr. 1 - 48 (1.)
C:traditionell
A:Salzkammergut
S:MIDI erhalten von Christian Amon. Nach einer kopie im besitz von Johann Stoeckl eines manuscriptes. Stoeckl(zitiert von Amon): "diese sammlung wurde 1935 im hause der familie Hohenlohe-Schillingfuerst gefunden. Sie wurde von einem der beiden brueder Steinegger 1866 verfasst. Die originale sind im Ausseer Kammerhofmuseum".
M:3/4
L:1/8
K:G
V:1
dg |\
da f2 ae' | d'b g2 dg | da f2 df | db g2 dg |\
da f2 ae' | d'b g2 dg | da f2 df | g4 |*
V:2
Bd |\
Af d2 fc' | bg d2 Bd | Af d2 cd | Bg d2 Bd |\
Af d2 fc' | bg d2 Bd | Af d2 cd | B4 |*
